tenants/donaldduck/icons/search.svg

<svg fill="none" height="24" viewBox="0 0 24 24" width="24" xmlns="http://www.w3.org/2000/svg"><path d="m21.671 20.094-3.776-3.765c1.2185-1.5524 1.8796-3.4695 1.877-5.443 0-1.75748-.5212-3.4755-1.4976-4.93679-.9764-1.4613-2.3642-2.60024-3.9879-3.2728s-3.4104-.84853-5.13407-.50566c-1.72371.34286-3.30705 1.18917-4.54978 2.4319s-2.08904 2.82607-2.4319 4.54978c-.34287 1.72367-.1669 3.51037.50566 5.13407s1.8115 3.0115 3.2728 3.9879c1.46129.9764 3.17931 1.4976 4.93679 1.4976 1.9735.0026 3.8906-.6585 5.443-1.877l3.765 3.776c.1032.1042.226.1868.3614.2433.1353.0564.2805.0854.4271.0854s.2918-.029.4271-.0854c.1354-.0565.2582-.1391.3614-.2433.1042-.1032.1868-.226.2433-.3614.0564-.1353.0854-.2805.0854-.4271s-.029-.2918-.0854-.4271c-.0565-.1354-.1391-.2582-.2433-.3614zm-17.45-9.208c0-.8753.1724-1.74195.50735-2.55058.33494-.80864.82588-1.54338 1.44479-2.16228.6189-.61891 1.35364-1.10985 2.16228-1.44479.80863-.33495 1.67528-.50735 2.55058-.50735s1.742.1724 2.5506.50735c.8086.33494 1.5434.82588 2.1623 1.44479.6189.6189 1.1098 1.35364 1.4448 2.16228.3349.80863.5073 1.67528.5073 2.55058 0 1.7677-.7022 3.4629-1.9521 4.7129-1.25 1.2499-2.9452 1.9521-4.7129 1.9521-1.76766 0-3.46293-.7022-4.71286-1.9521-1.24993-1.25-1.95214-2.9452-1.95214-4.7129z" fill="#000"/></svg>

<svg width="24" height="24" viewBox="0 0 24 24" fill="none" xmlns="http://www.w3.org/2000/svg">
<path d="M21.671 20.094L17.895 16.329C19.1135 14.7766 19.7746 12.8595 19.772 10.886C19.772 9.12852 19.2508 7.4105 18.2744 5.94921C17.298 4.48791 15.9102 3.34897 14.2865 2.67641C12.6628 2.00385 10.8761 1.82788 9.15243 2.17075C7.42872 2.51361 5.84538 3.35992 4.60265 4.60265C3.35992 5.84538 2.51361 7.42872 2.17075 9.15243C1.82788 10.8761 2.00385 12.6628 2.67641 14.2865C3.34897 15.9102 4.48791 17.298 5.94921 18.2744C7.4105 19.2508 9.12852 19.772 10.886 19.772C12.8595 19.7746 14.7766 19.1135 16.329 17.895L20.094 21.671C20.1972 21.7752 20.32 21.8578 20.4554 21.9143C20.5907 21.9707 20.7359 21.9997 20.8825 21.9997C21.0291 21.9997 21.1743 21.9707 21.3096 21.9143C21.445 21.8578 21.5678 21.7752 21.671 21.671C21.7752 21.5678 21.8578 21.445 21.9143 21.3096C21.9707 21.1743 21.9997 21.0291 21.9997 20.8825C21.9997 20.7359 21.9707 20.5907 21.9143 20.4554C21.8578 20.32 21.7752 20.1972 21.671 20.094ZM4.221 10.886C4.221 10.0107 4.3934 9.14405 4.72835 8.33542C5.06329 7.52678 5.55423 6.79204 6.17314 6.17314C6.79204 5.55423 7.52678 5.06329 8.33542 4.72835C9.14405 4.3934 10.0107 4.221 10.886 4.221C11.7613 4.221 12.628 4.3934 13.4366 4.72835C14.2452 5.06329 14.98 5.55423 15.5989 6.17314C16.2178 6.79204 16.7087 7.52678 17.0437 8.33542C17.3786 9.14405 17.551 10.0107 17.551 10.886C17.551 12.6537 16.8488 14.3489 15.5989 15.5989C14.3489 16.8488 12.6537 17.551 10.886 17.551C9.11834 17.551 7.42307 16.8488 6.17314 15.5989C4.92321 14.3489 4.221 12.6537 4.221 10.886Z" fill="black"/>
</svg>
